dist/svgs/unicons/line/layers-alt.svg

<svg xmlns="http://www.w3.org/2000/svg" viewBox="0 0 24 24"><path d="M21 2H9a1 1 0 00-1 1v4H6a1 1 0 00-1 1v4H3a1 1 0 00-1 1v8a1 1 0 001 1h8a1 1 0 001-1v-2h4a1 1 0 001-1v-2h4a1 1 0 001-1V3a1 1 0 00-1-1zM10 20H4v-6h6zm5-3h-3v-4a1 1 0 00-1-1H7V9h8zm5-3h-3V8a1 1 0 00-1-1h-6V4h10z"/></svg>

<svg xmlns="http://www.w3.org/2000/svg" viewBox="0 0 24 24"><path d="M21,2H9A1,1,0,0,0,8,3V7H6A1,1,0,0,0,5,8v4H3a1,1,0,0,0-1,1v8a1,1,0,0,0,1,1h8a1,1,0,0,0,1-1V19h4a1,1,0,0,0,1-1V16h4a1,1,0,0,0,1-1V3A1,1,0,0,0,21,2ZM10,20H4V14h6Zm5-3H12V13a1,1,0,0,0-1-1H7V9h8Zm5-3H17V8a1,1,0,0,0-1-1H10V4H20Z"/></svg>
